!!!OTL: Na S Krzyz
**kern
*staff1
=--
*clefC1
*k[]
00.r
=-
1g
0a
0cc
1a
=-
1a
1a
1g
(2a
2b)
2cc
2a
1g
=-
1a
0g
0a
1cc
=-
1dd
1cc
2cc
4cc
4cc
2b
2a
1g
1a
=-
!!linebreak:original
1a
1cc
1cc
1dd
2cc
2b
1a
=-
!LO:TX:Y=-35:t=P
1g
1g
1a
1.cc
2cc
1cc
=-
!LO:TX:Y=-39:t=P
1dd
2dd
2cc
1b
=-
!LO:TX:Y=-40:t=P
1a
2dd
1cc
=-
0a
0cc
!!linebreak:original
=-
*clefG2
0r
=-
1dd
2ee
2dd
=-
2cc
2b
2a
2a
=-
!LO:TX:Y=-35:t=P
1b
1b
=-
!LO:TX:Y=-34:t=P
2cc
2dd
2ee
2dd
=-
1cc
1dd
=-
1ee
1cc
=-
0dd
=-
0b
=-
!!linebreak:original
*clefC1
*k[b-]
1.dd
2cc
=-
!LO:TX:Y=123:t=P
2b-
2cc
1a
=-
!LO:TX:Y=-35:t=P
1g
1b-
=-
1cc
1dd
=-
!LO:TX:Y=-36:t=P
!LO:TX:Y=123:t=P
1cc
1b-
=-
1a
1b-
=-
!LO:TX:Y=-39:t=P
1cc
1.dd
2dd
2ee-
2dd
=-
!LO:TX:Y=124:t=P
1cc
0b-
!!linebreak:original
=-
1.dd
2cc
2b-
2cc
1.a
2a
1g
=-
!LO:TX:Y=-38:t=P
1b-
2cc
2cc
1dd
1cc
1b-
2a
2a
=-
!LO:TX:Y=-38:t=P
1b-
1cc
1.dd
2dd
2ee-
2dd
1cc
1b-
=-
!!pagebreak:original
1.dd
2cc
2b-
2g
1a
1g
=-
1b-
1.cc
2b-
2cc
2dd
1cc
1dd
=-
0dd
0dd
=-
!!linebreak:original
*k[]
1f
1g
1a
1g
=-
1a
2g
2f
1e
1d
=-
!LO:TX:Y=-39:t=P
!LO:TX:Y=-37:t=P
1f
1g
1a
1g
=-
!LO:TX:Y=-37:t=P
1a
2b
2cc
2dd
2b
2cc
2dd
=-
0cc
0dd
=-=
*-
!!title: @{OTL}, @{GTL}, ed. @{ENC}
!!!pag:
!!!GTL: Hymnbook C
!!!EFL: 
!!!YEM: Creative Commons CC/BY/NC/SA 4.0
!!!ENC: Marcin Konik
!!!END: 2015-0m-dd
!!!EED: Marcin Konik
!!!EEV: 
!!!ONB: Encoded in vim by Marcin Konik
!!!CharacterEncoding: utf-8
!!!RDF**kern: l=long note in original notation
!!!RDF**kern: i=editorial accidental
!!muse2ps: z14jc180F
!!!COM: Anonim
!!!CDT: [?]
!!!TXO: Polish
!!!ODT: 
!!!GTL: Hymnbook C
!!!ARL: Opactwo św. Wojciecha, Staniątki 
!!!voices:	1
